X:1
T:Title
%%score { 1 | ( 2 3 ) }
L:1/8
M:6/4
K:A
V:1 treble nm="Grand Piano"
V:2 bass 
V:3 bass 
V:1
 z6 z4[Q:1/4=168] E2 | [A,C]2 D2 E2 [DF]2 B2 A2 | [DG]2 F2 G2 [CA]4 c2 | [GB]2 c2 B2 [FA]2 B2 A2 | %4
 [EG]2 G2 F2 .[G,E]6 | [Fd]2 d2 d2 d2 c2 B2 | [CA]2 B2 c2 E4 E2 | [DF]2 F2 F2 [^DF]2 G2 A2 | %8
[M:5/4] [EG]2 A2 B2 [CA]4 |[M:1/4] [CE]2 |[M:6/4] [Ec] [Ec]3 [Ec]2 [CA]4 E2 | %11
 F2 F2 F2 [A,CE]4 [CEA]2 | G2 G2 G2 A2 A2 A2 |[M:5/4] B4 c2 d4 |[M:1/4] B2 | %15
[M:6/4] c2 c2 c2 e4 E2 |[M:7/4] F2 F2 F2 [Fd]6 [Fd]2 |[M:6/4] [Ec]2 [Fd]2 c2 B2 A2 G2 | %18
[M:5/4] [CA]2- [CA]2- [CA]6 |] %19
V:2
 z6 z4 C2 | z2 B,2 C2 z2 D2 D2 | z2 D2 D2 [A,,E,]4[K:treble] A2 | %3
 z2 A2 G2[K:bass] z2[K:treble] G2 F2 | z2 B,2 A,2 E,,4 E2 | z2[K:treble] F2 F2 F2 E2 D2 | %6
 z2 D2 E2 C4 C2 | z2 D2 D2 z2 ^D2 D2 |[M:5/4] z2 E2 D2 A,,4 |[M:1/4] [A,,A,]2 | %10
[M:6/4] [A,,A,] [A,,A,]3 [A,,A,]2 [A,,E,]4 [C,A,]2 | [D,A,D]2 [D,A,D]2 [D,A,D]2 A,,4 A,,2 | %12
 [E,B,E]2 [E,B,E]2 [E,B,E]2 [E,CE]2 [E,CE]2 [E,CE]2 | %13
[M:5/4] [E,E]4- [E,-A,E-]2 [E,B,E]3- [E,B,-E]/B,/ |[M:1/4] [E,G,E]2 | %15
[M:6/4] [A,E]2 [A,E]2 [A,E]2 [A,CE]4 [C,A,]2 |[M:7/4] [D,A,D]2 [D,A,D]2 [D,A,D]2 [D,A,]6 [D,A,]2 | %17
[M:6/4] [E,A,]2 [E,A,]2 [E,A,E]2 [E,D]2 [E,C]2 [E,B,]2 |[M:5/4] [A,,E,]2- [A,,E,]2- [A,,E,]6 |] %19
V:3
 x12 | A,,6 D,6 | E,6 z6[K:treble] | E,6[K:bass] A,,6[K:treble] | B,,6 z6 | E,12[K:treble] | %6
 A,,12 | .D,6 .B,,6 |[M:5/4] E,4 z2 z4 |[M:1/4] x2 |[M:6/4] x12 | x12 | x12 |[M:5/4] G,4 z2 z4 | %14
[M:1/4] x2 |[M:6/4] x12 |[M:7/4] x14 |[M:6/4] x12 |[M:5/4] x10 |] %19

